public/vectors/logo-redhat.svg

<svg enable-background="new 0 0 613 145" viewBox="0 0 613 145" xmlns="http://www.w3.org/2000/svg"><path d="m160 72.1c1.7 8.2 1.7 9.1 1.7 10.1 0 14-15.7 21.8-36.4 21.8-8 0-15.9-.8-23.4-2.2-1.4-.3-2.7-.5-4.1-.8s-2.7-.6-4-1c-1.3-.3-2.6-.7-3.9-1.1-.6-.2-1.3-.4-1.9-.6-1.3-.4-2.5-.8-3.8-1.2s-2.5-.9-3.7-1.3c-1.8-.7-3.6-1.4-5.3-2.1s-3.4-1.5-5-2.3c-19.7-9.5-32.6-22.7-32.6-32.8 0-2.5.5-5 1.5-7.3-16.8.7-38.6 3.7-38.6 22.9 0 31.5 74.6 70.3 133.6 70.3 45.3 0 56.7-20.5 56.7-36.7 0-12.7-11-27.1-30.8-35.7z"/><path d="m42.6 44c0 4.9 10.2 15.7 27.1 24.8 14.9 8 35 14.6 57.8 14.7 12.5 0 30.6-2.6 30.6-17.5 0-1.1-.1-2.3-.3-3.4l-7.4-32.4c-1.7-7.1-3.2-10.4-15.7-16.6-9.7-5-30.8-13.1-37.1-13.1-5.9 0-7.6 7.5-14.5 7.5-6.7 0-11.6-5.6-17.9-5.6-6 0-9.9 4.1-12.9 12.5 0 0-8.4 23.7-9.5 27.2-.2.6-.2 1.3-.2 1.9z"/><path d="m579.7 92.8c0 11.9 7.2 17.7 20.2 17.7 4-.1 8-.7 11.9-1.7v-13.8c-2.5.8-5.1 1.2-7.7 1.2-5.4 0-7.4-1.7-7.4-6.7v-21.2h15.6v-14.2h-15.6v-18l-17 3.7v14.3h-11.3v14.2h11.2zm-53 .3c0-3.7 3.7-5.5 9.3-5.5 3.4 0 6.8.4 10.1 1.3v7.2c-3.3 1.8-6.9 2.7-10.6 2.6-5.5 0-8.8-2.1-8.8-5.6m5.2 17.6c6 0 10.8-1.3 15.4-4.3v3.4h16.8v-35.7c0-13.6-9.1-21-24.4-21-8.5 0-16.9 2-26 6.1l6.1 12.5c6.5-2.7 12-4.4 16.8-4.4 7 0 10.6 2.7 10.6 8.3v2.7c-4.1-1.1-8.4-1.6-12.6-1.6-14.3 0-22.9 6-22.9 16.7 0 9.8 7.8 17.3 20.2 17.3m-92.4-.9h18.1v-28.9h30.3v28.8h18.1v-73.6h-18.1v28.3h-30.3v-28.3h-18.1zm-68.9-27.9c0-8 6.3-14.1 14.6-14.1 4.3-.1 8.5 1.5 11.8 4.3v19.4c-3.2 3-7.4 4.6-11.8 4.5-8.2 0-14.6-6.1-14.6-14.1m26.6 27.9h16.8v-77.4l-17 3.7v20.9c-4.3-2.5-9.2-3.7-14.2-3.7-16.2 0-28.9 12.5-28.9 28.5-.2 15.6 12.3 28.4 27.9 28.6h.5c5.4 0 10.6-1.7 14.9-4.8zm-77.2-42.8c5.4 0 9.9 3.5 11.7 8.8h-23.2c1.6-5.5 5.9-8.8 11.5-8.8m-28.7 15c0 16.2 13.2 28.8 30.3 28.8 9.4 0 16.2-2.5 23.2-8.4l-11.3-10c-2.6 2.7-6.5 4.2-11.1 4.2-5.9.2-11.4-3.3-13.7-8.8h39.6v-4.2c0-17.7-11.9-30.4-28.1-30.4-15.8-.2-28.8 12.4-29 28.1.1.2.1.4.1.7m-29.3-30.4c6 0 9.4 3.8 9.4 8.3s-3.4 8.3-9.4 8.3h-17.9v-16.6zm-36 58.1h18.1v-26.8h13.8l13.9 26.8h20.2l-16.2-29.4c8.4-3.4 13.9-11.6 13.9-20.7 0-13.2-10.4-23.5-26-23.5h-37.7z"/></svg>

<?xml version="1.0" encoding="utf-8"?>
<!-- Generator: Adobe Illustrator 24.1.2, SVG Export Plug-In . SVG Version: 6.00 Build 0)  -->
<svg version="1.1" id="Layer_1" xmlns="http://www.w3.org/2000/svg" xmlns:xlink="http://www.w3.org/1999/xlink" x="0px" y="0px"
	 viewBox="0 0 613 145" style="enable-background:new 0 0 613 145;" xml:space="preserve">
<style type="text/css">
	.st0{fill:#FFFFFF;}
</style>
<path class="st0" d="M160,72.1c1.7,8.2,1.7,9.1,1.7,10.1c0,14-15.7,21.8-36.4,21.8c-8,0-15.9-0.8-23.4-2.2c-1.4-0.3-2.7-0.5-4.1-0.8
	s-2.7-0.6-4-1c-1.3-0.3-2.6-0.7-3.9-1.1c-0.6-0.2-1.3-0.4-1.9-0.6c-1.3-0.4-2.5-0.8-3.8-1.2s-2.5-0.9-3.7-1.3
	c-1.8-0.7-3.6-1.4-5.3-2.1s-3.4-1.5-5-2.3c-19.7-9.5-32.6-22.7-32.6-32.8c0-2.5,0.5-5,1.5-7.3C22.3,52,0.5,55,0.5,74.2
	c0,31.5,74.6,70.3,133.6,70.3c45.3,0,56.7-20.5,56.7-36.7C190.8,95.1,179.8,80.7,160,72.1z"/>
<path class="st0" d="M42.6,44c0,4.9,10.2,15.7,27.1,24.8c14.9,8,35,14.6,57.8,14.7c12.5,0,30.6-2.6,30.6-17.5c0-1.1-0.1-2.3-0.3-3.4
	l-7.4-32.4c-1.7-7.1-3.2-10.4-15.7-16.6c-9.7-5-30.8-13.1-37.1-13.1C91.7,0.5,90,8,83.1,8c-6.7,0-11.6-5.6-17.9-5.6
	c-6,0-9.9,4.1-12.9,12.5c0,0-8.4,23.7-9.5,27.2C42.6,42.7,42.6,43.4,42.6,44L42.6,44z"/>
<path class="st0" d="M579.7,92.8c0,11.9,7.2,17.7,20.2,17.7c4-0.1,8-0.7,11.9-1.7V95c-2.5,0.8-5.1,1.2-7.7,1.2
	c-5.4,0-7.4-1.7-7.4-6.7V68.3h15.6V54.1h-15.6v-18l-17,3.7v14.3h-11.3v14.2h11.2L579.7,92.8z M526.7,93.1c0-3.7,3.7-5.5,9.3-5.5
	c3.4,0,6.8,0.4,10.1,1.3v7.2c-3.3,1.8-6.9,2.7-10.6,2.6C530,98.7,526.7,96.6,526.7,93.1 M531.9,110.7c6,0,10.8-1.3,15.4-4.3v3.4
	h16.8V74.1c0-13.6-9.1-21-24.4-21c-8.5,0-16.9,2-26,6.1l6.1,12.5c6.5-2.7,12-4.4,16.8-4.4c7,0,10.6,2.7,10.6,8.3v2.7
	c-4.1-1.1-8.4-1.6-12.6-1.6c-14.3,0-22.9,6-22.9,16.7C511.7,103.2,519.5,110.7,531.9,110.7 M439.5,109.8h18.1V80.9h30.3v28.8H506
	V36.1h-18.1v28.3h-30.3V36.1h-18.1V109.8z M370.6,81.9c0-8,6.3-14.1,14.6-14.1c4.3-0.1,8.5,1.5,11.8,4.3v19.4
	c-3.2,3-7.4,4.6-11.8,4.5C377,96,370.6,89.9,370.6,81.9 M397.2,109.8H414V32.4l-17,3.7V57c-4.3-2.5-9.2-3.7-14.2-3.7
	c-16.2,0-28.9,12.5-28.9,28.5c-0.2,15.6,12.3,28.4,27.9,28.6h0.5c5.4,0,10.6-1.7,14.9-4.8L397.2,109.8z M320,67
	c5.4,0,9.9,3.5,11.7,8.8h-23.2C310.1,70.3,314.4,67,320,67 M291.3,82c0,16.2,13.2,28.8,30.3,28.8c9.4,0,16.2-2.5,23.2-8.4l-11.3-10
	c-2.6,2.7-6.5,4.2-11.1,4.2c-5.9,0.2-11.4-3.3-13.7-8.8h39.6v-4.2c0-17.7-11.9-30.4-28.1-30.4c-15.8-0.2-28.8,12.4-29,28.1
	C291.3,81.5,291.3,81.7,291.3,82 M262,51.6c6,0,9.4,3.8,9.4,8.3s-3.4,8.3-9.4,8.3h-17.9V51.6H262z M226,109.7h18.1V82.9h13.8
	l13.9,26.8H292l-16.2-29.4c8.4-3.4,13.9-11.6,13.9-20.7c0-13.2-10.4-23.5-26-23.5H226L226,109.7z"/>
</svg>
